X: 38745
T: Striking Clock, The
R: slip jig
M: 9/8
K: Bminor
|:"Bm"B3 dBf edB|"G"G3 Bdg fdB|"E5"E3 Bdg fed|"F#m"fAf efe dBA|
"Bm"B2B dBf edB|"G"G3 Bdg fdB|"E5"E3 Bdg fed|1 "A"f3 e2c dBA:|2 "A"f3 g3 a3||
|:"G"b2f abf- faf|"F#m"a2f ef"Bm"d- dBA|"Em"B2E EDE- EBA|"F#m"ABd cdf efa|
"G"b2f abf- faf|"F#m"a2f ef"Bm"d- daf|"Em"a3 f3 dBA|1 "A"a3 f3 efa:|2 "A"a3 f3 dBA||

